src/images/icons/pencil.svg

<svg viewBox="0 0 24 24" version="1.1" xmlns="http://www.w3.org/2000/svg">
    <title>pencil</title>
    <path d="M3.42857143,18.3790875 L3.42857143,22.2857143 L7.33519823,22.2857143 L18.8571429,10.7637697 L14.9505161,6.85714286 L3.42857143,18.3790875 Z M21.9441708,8.14887794 C22.3995621,7.69348659 22.3995621,6.95785441 21.9441708,6.50246305 L19.2118227,3.77011494 C18.7564313,3.31472359 18.0207991,3.31472359 17.5654078,3.77011494 L15.4285714,5.90695129 L19.8073344,10.2857143 L21.9441708,8.14887794 Z"></path>
</svg>

<svg viewBox="0 0 24 24" xmlns="http://www.w3.org/2000/svg">
    <title>pencil</title>
    <path d="m3.4286 18.379v3.9066h3.9066l11.522-11.522-3.9066-3.9066-11.522 11.522zm18.516-10.23c0.45539-0.45539 0.45539-1.191 0-1.6464l-2.7323-2.7323c-0.45539-0.45539-1.191-0.45539-1.6464 0l-2.1368 2.1368 4.3788 4.3788 2.1368-2.1368z"/>
</svg>
